X:38
T:Garrett Barry's Jig
R:jig
Z:id:hn-jig-38
M:6/8
K:Dmix
DEF ~G3|AGE c2A|dcA d2e|fed cAG|~F3 GFG|AGA cde|dcA GEA|1~D3 D2A:|2~D3 D2d||
|:dcA d2e|fed efe|dcA c2d|egc edc|dcA d2e|fed efe|dcA GEA|1~D3 D2d:|2~D3 D2A||
P:Variations:
|:DEF ~G3|AGA c2A|dcA d2e|=fed cAG|~F3 GFG|AGA cde|dcA GEA|1 DED D2A:|2 DED DFA||
dcA d2e|=fed e=fe|dcA c2d|egc ecA|dcA d2e|=fed e=fe|dcA GEA|DED D2d|
dcA d2e|^fag efe|dcA c2d|egc ecA|dcA d2e|^fag efe|dcA GEA|DED dAF||

